X: 539
U:~=!turn!
M:6/8
L:1/8
K:D
a | fdd ecc | dcB AFA | fda eca | dB^g a2 =g | fdd ecc | dcB AFE | DFA dAF | DED D2 :|


